X: 132172
T: Magic Slipper (polka)
S: Paul de Grae via IRTRAD 6/20/06
N: Recorded by James Morrison as a pair with "Little Diamond"
N: An unrelated reel of the same name exists.
R: Polka
M: 2/4
L: 1/8
K: D
Af Af | ed A2 | B/c/d ef | ag g2 | 
Bg Bg | gf f>f | ed cB | Aa a2 :|
DF d>d | cB B/A/B | E/F/G/A/ B>c | BA A/B/A | 
DF d>d | cB B/A/B | g/f/e Bc | ed d2 :|
